icons/calendar-arrow-down.svg

<svg xmlns="http://www.w3.org/2000/svg" width="24" height="24" viewBox="0 0 24 24">
  <path d="M22,10 L22,20 C22,21.6568542 20.6568542,23 19,23 L5,23 C3.34314575,23 2,21.6568542 2,20 L2,10 L22,10 Z M12,12 C11.4871642,12 11.0644928,12.3860402 11.0067277,12.8833789 L11,13 L11,16.585 L9.70710678,15.2928932 C9.31658249,14.9023689 8.68341751,14.9023689 8.29289322,15.2928932 C7.93240926,15.6533772 7.90467972,16.2206082 8.20970461,16.6128994 L8.29289322,16.7071068 L11.2928932,19.7071068 L11.347434,19.757792 L11.347434,19.757792 L11.359,19.767 L11.374551,19.7803112 L11.378,19.783 L11.3832499,19.787214 L11.38,19.784 L11.4046934,19.8036654 L11.4046934,19.8036654 C11.4288693,19.8215099 11.453725,19.8382813 11.4793398,19.8539326 L11.5159379,19.8753288 L11.5159379,19.8753288 C11.5357061,19.8862061 11.5561086,19.8966234 11.5769009,19.9063462 L11.628664,19.9287745 L11.628664,19.9287745 C11.6484208,19.9366843 11.6682023,19.9438775 11.6882636,19.9504533 C11.7031487,19.9552713 11.7185367,19.9599023 11.734007,19.9641549 C11.7555635,19.9701664 11.7772539,19.9753602 11.7992059,19.9798348 C11.8166247,19.9832978 11.834051,19.9863719 11.8515331,19.9889822 L11.909968,19.996002 L11.909968,19.996002 C11.9208131,19.99693 11.9308872,19.9976744 11.9409686,19.9982669 L11.980824,19.9998198 C11.9872016,19.9999398 11.9935938,20 12,20 L12.019,19.999 L12.026,19.999 L12.08,19.996 L12.1489612,19.9889807 L12.1489612,19.9889807 C12.165949,19.9863719 12.1833753,19.9832978 12.2007258,19.9797599 C12.2227461,19.9753602 12.2444365,19.9701664 12.2658396,19.964279 C12.2814633,19.9599023 12.2968513,19.9552713 12.3121425,19.9502619 C12.3317977,19.9438775 12.3515792,19.9366843 12.3710585,19.928896 L12.4232215,19.9063266 L12.4232215,19.9063266 C12.4438914,19.8966234 12.4642939,19.8862061 12.484277,19.8751242 C12.4963944,19.8685012 12.5086131,19.8613931 12.5207088,19.8540045 C12.546275,19.8382813 12.5711307,19.8215099 12.5951593,19.8036865 C12.6012086,19.7992821 12.6070733,19.7948255 12.6128994,19.7902954 C12.6196628,19.7849289 12.6225624,19.7826279 12.625449,19.7803112 L12.7071068,19.7071068 L15.7071068,16.7071068 C16.0976311,16.3165825 16.0976311,15.6834175 15.7071068,15.2928932 C15.3466228,14.9324093 14.7793918,14.9046797 14.3871006,15.2097046 L14.2928932,15.2928932 L13,16.585 L13,13 C13,12.4477153 12.5522847,12 12,12 Z M7,3 L7,4 L7.00672773,4.11662113 C7.06449284,4.61395981 7.48716416,5 8,5 C8.51283584,5 8.93550716,4.61395981 8.99327227,4.11662113 L9,4 L9,3 L15,3 L15,4 L15.0067277,4.11662113 C15.0644928,4.61395981 15.4871642,5 16,5 C16.5128358,5 16.9355072,4.61395981 16.9932723,4.11662113 L17,4 L17,3 L19,3 C20.6568542,3 22,4.34314575 22,6 L22,8 L2,8 L2,6 C2,4.34314575 3.34314575,3 5,3 L7,3 Z M16,1 C16.5128358,1 16.9355072,1.38604019 16.9932723,1.88337887 L17,2 L17,3 L15,3 L15,2 C15,1.44771525 15.4477153,1 16,1 Z M8,1 C8.51283584,1 8.93550716,1.38604019 8.99327227,1.88337887 L9,2 L9,3 L7,3 L7,2 C7,1.44771525 7.44771525,1 8,1 Z"/>
</svg>

<svg xmlns="http://www.w3.org/2000/svg" viewBox="0 0 24 24">
  <path d="M22 10v10a3 3 0 0 1-3 3H5a3 3 0 0 1-3-3V10h20zm-10 2a1 1 0 0 0-1 .88v3.71l-1.3-1.3a1 1 0 0 0-1.49 1.32l.08.1 3 3 .06.05.02.02h.01l.02.02.08.05.04.03.06.03.05.02a.99.99 0 0 0 .22.06h.09l.04.01h.1l.07-.01a1.08 1.08 0 0 0 .22-.06l.05-.02a1.02 1.02 0 0 0 .2-.13l.09-.07 3-3a1 1 0 0 0-1.32-1.5l-.1.08L13 16.6V13a1 1 0 0 0-1-1zM7 3v1.12a1 1 0 0 0 2 0V3h6v1.12a1 1 0 0 0 2 0V3h2a3 3 0 0 1 3 3v2H2V6a3 3 0 0 1 3-3h2zm9-2a1 1 0 0 1 1 .88V3h-2V2a1 1 0 0 1 1-1zM8 1a1 1 0 0 1 1 .88V3H7V2a1 1 0 0 1 1-1z"/>
</svg>
